X: 1
T:The Dawning Of The Day  "CYMRU"
M:C
L:1/8
Q:80
C:
S:March
K:HP
[| {g}AB|
{g}c2{GdG}c2{gcd}c2{g}A{d}c|
{gef}e2{A}e2{gfg}f2{gef}ec|  !
{g}A2Bc{g}A2{GAG}AB|
{g}A4{GAG}A2{gef}e2| |
{gfg}f3e{gfg}f2{ag}a2|  !
{cd}c3B{g}A2{g}cd|
{gef}e2c2{ag}a2c2|
{g}B4{GdGe}B2{gef}d2| |  !
{gfg}f3e{gfg}f2{ag}a2|
{cd}c3B{g}A2{g}cd|
{gef}e2c2{ag}a2c2|  !
{g}B4{GdGe}B2{g}AB| |
{g}c2{GdG}c2{gcd}c2{g}A{d}c|
{gef}e2{A}e2{gfg}f2{gef}ec|  !
{g}A2Bc{g}A2{GAG}AB|
{g}A4{GAG}A2|]
